X:544
T: SCHACKE SCHACKE REITERPFERD
N: E1824
O: Europa, Mitteleuropa, Deutschland, Thueringen
R: Kinder -, Schaukel -, Reiter - Lied
M: 2/4
L: 1/16
K: C
 | c2c2d2d2 | c2c2G4 |
c2c2d2d2 | c2c2G4 |
c2c2d2d2 | e2e2d2z2 |
c3GG2E2 | D3CC2z2

@@@ Tune index: 5228
